X:1
T:Title
%%score 1 { ( 2 4 ) | 3 }
L:1/8
Q:1/4=98
M:4/4
K:Bb
V:1 treble nm="Grand Piano, Soprano"
V:2 bass nm="Choir Pad, Bass"
V:4 bass 
V:3 bass 
V:1
 [DF][_D=E][=DF][Fd]- [Fd] [Fd]3 | [DF][_D=E][=DF][Fd]- [Fd] [Fd]3 | %2
w: By~Samuel~W.~Beazley * * * * *||
 [DF][_D=E][=DF][Fd] [Ge][Fd][_Ec][DB] | [DF][DG][DB][EA]- [EA] [EA]3 | %4
w: ||
 [EF][EG][EF][Ee]- [Ee] [Fe]3 | [EF][EG][EF][Ee]- [Ee] [Fe]3 | [EF][EG][EF][Fe] [Ec][EA][EF][EA] | %7
w: |||
 [Ec][Ee][Ff][Fd]- [Fd] [Fd]3 | [DF][_D=E][=DF][Fd]- [Fd] [Fd]3 | [DF][_D=E][=DF][Fd]- [Fd] [Fd]3 | %10
w: |||
 [DF][_D=E][=DF][Fd] [Ge][Fd][_Ec][DB] | [DF][EG][F_A][EG]- [EG] [EG]3 | %12
w: ||
 [EG][FA][GB][Ge]- [Ge] [Ge]3 | [EG][GB][^Fc][=Fd]- [Fd] [Fd]3 | %14
w: ||
 [DF][_D=E][=DF][Fd]- [Fd] [Fd]2 [_Ec]- | [Ec] [Ec]2 [DB]- [DB]4- | [DB]D/E/- E/=E/[DF]- [DF]4 | %17
w: |||
 [DF][DB][Fd][Ec]- [Ec] [DB]3 | [Bd][Ac][GB][GB]- [GB] [FA]3 | [Ac][GB][FA][DB]- [DB] [FA]2 [EG]- | %20
w: |||
 [EG] [DF]2 [Fd]- [Fd]4 | [DF][DB][Fd][Ec]- [Ec] [DB]3 | [DB][EA][FB][=Ec]- [Ec] [EG]2 [FA]- | %23
w: |||
 [FA] [=EB]2 [_Ec]- [Ec]4- | [Ec]2 z [DF]- [DF]4 | [DF][DB][Fd][Ec]- [Ec] [DB]3 | %26
w: |||
 [Bd][Ac][GB][GB]- [GB] [FA]3 | [Ac][GB][FA][DB]- [DB] [FA]2 [EG]- | [EG] [DF]2 [Fd]- [Fd]4 | %29
w: |||
 [DF][DB][Fd][Ge]- [Ge] [EG]3 | [EG][GB][^Fc][=Fd]- [Fd] [Fd]2 [Ec]- | [Ec] [Ec]2 [DB]- [DB]4- | %32
w: |||
 [DB]2 z2 z4 |] %33
w: |
V:2
 B,B,B,B,- B, B,3 | B,B,B,B,- B, B,3 | B,B,B,B, B,B,B,B, | B,F,F,F,- F, F,3 | A,A,A,A,- A, A,3 | %5
 A,A,A,A,- A, A,3 | A,A,A,A, A,CA,C | A,A,A,B,- B, B,3 | B,B,B,B,- B, B,3 | B,B,B,B,- B, B,3 | %10
 B,B,B,B, B,B,B,B, | B,B,B,B,- B, B,3 | B,B,B,B,- B, B,3 | B,B,B,B,- B, B,3 | z8 | z2 z B,- B,3 z | %16
 z8 | z8 | z8[K:treble] | z8[K:bass] | z8 | z8 | z8[K:treble] | z8[K:bass] | E,D,C,B,- B, B,2 B,- | %25
 B, B,2 B,- B, B,2 B,- | B, B,2 F,- F,[K:treble] C2 C- | C C2 B,- B,[K:bass] A,2 G,- | %28
 G, F,2 B,- B, B,2 B,- | B, B,2 B,- B, B,2 B,- | B, B,2 B,- B, B,2 A,- | A, A,2 B,- B,4- | %32
 B,2 z2 z4 |] %33
V:3
 B,,B,,B,,B,,- B,, B,,3 | B,,B,,B,,B,,- B,, B,,3 | B,,B,,B,,B,, B,,B,,B,,B,, | %3
 B,,B,,B,,C,- C, C,3 | F,F,F,F,- F, F,3 | F,F,F,F,- F, F,3 | F,F,F,F, F,F,F,F, | %7
 F,F,F,B,,- B,, B,,3 | B,,B,,B,,B,,- B,, B,,3 | B,,B,,B,,B,,- B,, B,,3 | %10
 B,,B,,B,,B,, B,,B,,B,,B,, | B,,B,,B,,E,- E, E,3 | E,E,E,E,- E, E,3 | E,E,E,B,,- B,, B,,3 | %14
 B,,B,,B,,F,- F, F,2 F,- | F, F,2 B,,- B,,3 B,,- | B,,2 z B,,- B,, [F,,F,]2 B,,- | %17
 B,, [F,,F,]2 B,,- B,, [F,,F,]2 B,,- | B,, [F,,F,]2 C,- C, [F,,F,]2 C,- | %19
 C, [F,,F,]2 B,,- B,, F,2 E,- | E, D,2 B,,- B,, [F,,F,]2 B,,- | %21
 B,, [F,,F,]2 B,,- B,, [F,,F,]2 B,,- | B,,C,D,C,- C, B,2 B,- | B, G,2 F, G, A,3- | %24
 A,2 z B,,- B,, [F,,F,]2 B,,- | B,, [F,,F,]2 B,,- B,, [F,,F,]2 B,,- | %26
 B,, [F,,F,]2 C,- C, [F,,F,]2 C,- | C, [F,,F,]2 B,,- B,, F,2 E,- | E, D,2 B,,- B,, [F,,F,]2 B,,- | %29
 B,, B,,2 E,- E, E,2 E,- | E, E,2 F,- F, F,2 F,- | F, F,2 B,,- B,,4- | B,,2 z2 z4 |] %33
V:4
 x8 | x8 | x8 | x8 | x8 | x8 | x8 | x8 | x8 | x8 | x8 | x8 | x8 | x8 | B,B,B,B,- B, B,2 A,- | %15
 A, .A,3 z F,2 B,- | B,2 z B,- B, B,2 B,- | B, B,2 B,- B, B,2 B,- | B, B,2 F,- F,[K:treble] C2 C- | %19
 C C2 B,- B,[K:bass] A,2 G,- | G, F,2 B,- B, B,2 B,- | B, B,2 B,- B, B,2 B,- | %22
 B, F,2 B,- B,[K:treble] C2 D- | D C2 A,- A, z[K:bass] G,F, | x8 | x8 | x5[K:treble] x3 | %27
 x5[K:bass] x3 | x8 | x8 | x8 | x8 | x8 |] %33

